packages/foundations/assets/icons/functional/images/transportation/train_and_car_32_inverted.svg

<svg width="32" height="32" viewBox="0 0 32 32" fill="none" xmlns="http://www.w3.org/2000/svg">
<g clip-path="url(#clip0_2214_6808)">
<path fill-rule="evenodd" clip-rule="evenodd" d="M3.102 22.8285C4.093 23.9355 5.268 24.9045 7.087 26.0985L7.658 26.4605C8.037 26.6735 8.435 26.8045 9 26.8835C9.44 26.9165 9.851 26.9145 10.28 26.9335C10.288 26.9615 10.292 26.9895 10.3 27.0165V29.0005C10.3 29.1425 10.317 29.2805 10.334 29.4175C10.338 29.4455 10.342 29.4765 10.342 29.4995C10.342 29.7755 10.118 29.9995 9.842 29.9995H8.001C7.449 29.9995 7.001 29.5515 7.001 28.9995C7.001 28.9095 7.013 28.8215 7.035 28.7385C6.241 28.4545 5.536 27.9465 5.015 27.2645C4.494 26.5825 4.033 25.7725 3.751 25.1205C3.648 24.8815 3.432 24.1175 3.102 22.8285ZM25.002 13.9995C25.992 14.0005 26.686 14.6665 26.981 15.6255L28 20.0005H29.352C29.688 20.0005 30 20.2675 30 20.5785V21.3115C30 21.6465 29.739 22.0015 29.352 22.0005H28.517C28.55 22.1625 28.567 22.3805 28.567 22.5365C28.567 22.6405 28.438 23.7985 28.179 26.0085C28.15 26.2615 28.089 26.5055 28.002 26.7345V28.9995C28.001 29.5515 27.553 29.9995 27.001 29.9995H26.401C25.849 29.9995 25.401 29.5515 25.401 28.9995V28.6575C23.601 28.8855 21.801 28.9995 20.001 28.9995C18.201 28.9995 16.401 28.8855 14.601 28.6575V28.9995C14.601 29.5515 14.153 29.9995 13.601 29.9995H13.001C12.449 29.9995 12.001 29.5515 12.001 28.9995V26.7375C11.934 26.5625 11.883 26.3795 11.849 26.1905L11.451 22.7865C11.42 22.5175 11.433 22.2525 11.484 22.0005H10.65C10.28 22.0005 10.002 21.6785 10.002 21.3105V20.6435C10.002 20.2745 10.28 19.9995 10.65 19.9995H12.002L12.98 15.7865C13.211 14.7975 14.027 14.0735 15.002 13.9995H25.002ZM22.007 23.7505L17.865 23.7575C17.478 23.8035 17.152 24.0705 17.032 24.4405L16.736 25.9205C16.698 26.3815 16.982 26.8725 17.537 26.9815C18.092 27.0905 18.542 26.7495 18.684 26.3105L18.802 25.7505H21.187L21.306 26.3105C21.46 26.7865 21.95 27.0825 22.453 26.9815C22.956 26.8805 23.295 26.4195 23.254 25.9205L22.958 24.4405C22.825 24.0335 22.444 23.7505 22.007 23.7505ZM26.42 23.0035L24.941 23.2995C24.465 23.4535 24.169 23.9435 24.27 24.4465C24.371 24.9495 24.832 25.2885 25.331 25.2475L26.81 24.9515C27.286 24.7975 27.582 24.3075 27.481 23.8045C27.38 23.3015 26.919 22.9625 26.42 23.0035ZM12.52 23.8045C12.419 24.3075 12.715 24.7975 13.191 24.9515L14.67 25.2475C15.169 25.2885 15.63 24.9495 15.731 24.4465C15.832 23.9435 15.536 23.4535 15.06 23.2995L13.581 23.0035C13.082 22.9625 12.621 23.3015 12.52 23.8045ZM13.486 2.00049C16.571 2.00049 18.358 3.07449 19.738 4.90049C21.018 6.59249 21.766 8.61949 21.893 10.7265L21.909 11.0995C21.909 11.0995 21.926 11.7945 21.926 11.8005C21.926 12.0765 21.702 12.3005 21.426 12.3005H18.24C18.355 11.9295 18.505 11.5075 18.757 10.1045C19.094 8.22449 18.038 6.42949 16.467 5.74849C15.09 5.15149 13.596 5.00049 11.999 5.00049C10.274 5.00049 8.849 5.22249 7.727 5.66549C6.011 6.34249 4.862 8.11349 5.246 10.1105C5.458 11.2105 5.667 11.9715 5.787 12.3745C6.09 13.3865 6.916 14.1495 7.938 14.3765L9.383 14.6025C10.09 14.7105 10.803 14.7675 11.516 14.7875C11.436 14.9835 11.37 15.1885 11.321 15.4005L10.648 18.2995C9.954 18.2995 9.345 18.5895 8.919 19.0515L8.593 18.0405C8.386 17.5845 7.865 17.3475 7.377 17.5045C6.889 17.6625 6.605 18.1595 6.703 18.6505L7.673 21.6595C8.002 22.5295 9.221 23.3185 9.827 23.5495L9.996 24.9925C8.965 24.9605 8.688 24.7505 8.199 24.4375C5.684 22.8305 4.65 21.7505 3.451 20.0435C2.652 18.9055 2.231 18.3155 2.189 18.2735C2.062 16.9435 2 15.8765 2 15.0715C2.001 14.2665 2.032 12.9425 2.092 11.0995C2.148 8.85949 2.907 6.69249 4.262 4.90049C5.593 3.14049 7.378 2.00049 10.579 2.00449L13.486 2.00049ZM15.164 15.6935C14.956 15.6945 14.758 15.8385 14.666 16.0695L13.745 20.0005H26.255L25.369 16.1735C25.309 15.9185 25.13 15.7425 24.927 15.7025L15.164 15.6935Z" fill="#1A1C1F"/>
</g>
<defs>
<clipPath id="clip0_2214_6808">
<rect width="32" height="32" fill="white"/>
</clipPath>
</defs>
</svg>

<svg xmlns="http://www.w3.org/2000/svg" width="32" height="32" fill="none"><g clip-path="url(#a)"><path fill="#1A1C1F" fill-rule="evenodd" d="M3.102 22.829c.991 1.107 2.166 2.075 3.985 3.27l.571.361c.379.213.777.345 1.342.424.44.032.851.03 1.28.05q.01.041.02.082v1.985c0 .141.017.28.034.416a.5.5 0 0 1-.492.582H8.001a1 1 0 0 1-.966-1.26 4.4 4.4 0 0 1-2.02-1.474 10.9 10.9 0 0 1-1.264-2.145q-.154-.359-.649-2.292m21.9-8.83c.99.002 1.684.667 1.979 1.627L28 20h1.352c.336 0 .648.267.648.578v.733c0 .335-.261.69-.648.69h-.835c.033.162.05.38.05.535q0 .156-.388 3.473-.045.381-.177.726V29c-.001.552-.449 1-1.001 1h-.6a1 1 0 0 1-1-1v-.343a43 43 0 0 1-10.8 0V29a1 1 0 0 1-1 1h-.6a1 1 0 0 1-1-1v-2.262a3 3 0 0 1-.152-.547l-.398-3.404a2.5 2.5 0 0 1 .033-.787h-.834c-.37 0-.648-.322-.648-.69v-.666A.63.63 0 0 1 10.65 20h1.352l.978-4.213c.231-.99 1.047-1.714 2.022-1.788zm-2.995 9.751-4.142.008a1 1 0 0 0-.833.683l-.296 1.48a.987.987 0 0 0 .801 1.06.99.99 0 0 0 1.147-.67l.118-.56h2.385l.119.56a1 1 0 0 0 1.948-.39l-.296-1.48a1 1 0 0 0-.951-.69m4.413-.747-1.479.296a1 1 0 0 0 .39 1.948l1.479-.296a1 1 0 0 0-.39-1.948m-13.9.802a1 1 0 0 0 .671 1.146l1.479.296a1 1 0 0 0 .39-1.948l-1.479-.296a1 1 0 0 0-1.061.802M13.486 2c3.085 0 4.872 1.074 6.252 2.9a10.73 10.73 0 0 1 2.155 5.826l.016.373.017.701a.5.5 0 0 1-.5.5H18.24c.115-.37.265-.793.517-2.196.337-1.88-.719-3.675-2.29-4.356C15.09 5.151 13.596 5 11.999 5q-2.588 0-4.272.665c-1.716.677-2.865 2.448-2.481 4.446.212 1.1.421 1.86.541 2.263a2.9 2.9 0 0 0 2.151 2.002l1.445.226c.707.108 1.42.165 2.133.185q-.12.294-.195.613l-.673 2.9c-.694 0-1.303.29-1.729.752l-.326-1.011a1 1 0 0 0-1.89.61l.97 3.009c.329.87 1.548 1.659 2.154 1.89l.169 1.442c-1.031-.032-1.308-.242-1.797-.555-2.515-1.607-3.549-2.687-4.748-4.393q-1.199-1.709-1.262-1.77-.19-1.995-.189-3.203.002-1.206.092-3.971c.056-2.24.815-4.408 2.17-6.2C5.593 3.14 7.378 2 10.579 2.004zm1.678 13.694c-.208 0-.406.144-.498.376L13.745 20h12.51l-.886-3.826c-.06-.255-.239-.431-.442-.471z" clip-rule="evenodd"/></g><defs><clipPath id="a"><path fill="#fff" d="M0 0h32v32H0z"/></clipPath></defs></svg>
